icons/svg/office/forestry.svg

<?xml version="1.0" encoding="UTF-8" standalone="no"?>
<!-- Created with Inkscape (http://www.inkscape.org/) -->

<svg
   xmlns:dc="http://purl.org/dc/elements/1.1/"
   xmlns:cc="http://creativecommons.org/ns#"
   xmlns:rdf="http://www.w3.org/1999/02/22-rdf-syntax-ns#"
   xmlns:svg="http://www.w3.org/2000/svg"
   xmlns="http://www.w3.org/2000/svg"
   xmlns:sodipodi="http://sodipodi.sourceforge.net/DTD/sodipodi-0.dtd"
   xmlns:inkscape="http://www.inkscape.org/namespaces/inkscape"
   version="1.0"
   width="580"
   height="580"
   id="svg2"
   sodipodi:version="0.32"
   inkscape:version="0.91 r"
   sodipodi:docname="forestry.svg"
   inkscape:output_extension="org.inkscape.output.svg.inkscape">
  <metadata
     id="metadata10">
    <rdf:RDF>
      <cc:Work
         rdf:about="">
        <dc:format>image/svg+xml</dc:format>
        <dc:type
           rdf:resource="http://purl.org/dc/dcmitype/StillImage" />
        <cc:license
           rdf:resource="http://web.resource.org/cc/PublicDomain" />
        <dc:language>en</dc:language>
        <dc:title></dc:title>
      </cc:Work>
    </rdf:RDF>
  </metadata>
  <sodipodi:namedview
     inkscape:window-height="1004"
     inkscape:window-width="1920"
     inkscape:pageshadow="2"
     inkscape:pageopacity="0.0"
     guidetolerance="10.0"
     gridtolerance="10.0"
     objecttolerance="10.0"
     borderopacity="1.0"
     bordercolor="#666666"
     pagecolor="#ffffff"
     id="base"
     showgrid="false"
     inkscape:zoom="0.35355339"
     inkscape:cx="509.46112"
     inkscape:cy="443.19679"
     inkscape:window-x="1680"
     inkscape:window-y="0"
     inkscape:current-layer="svg2"
     inkscape:window-maximized="1" />
  <defs
     id="defs4">
    <inkscape:perspective
       sodipodi:type="inkscape:persp3d"
       inkscape:vp_x="0 : 290 : 1"
       inkscape:vp_y="0 : 1000 : 0"
       inkscape:vp_z="580 : 290 : 1"
       inkscape:persp3d-origin="290 : 193.33333 : 1"
       id="perspective12" />
  </defs>
  <g
     id="g1327">
    <path
       d="M 66.275,1.768 C 24.94,1.768 1.704,23.139 1.704,66.804 L 1.704,516.927 C 1.704,557.771 22.598,579.156 63.896,579.156 L 515.92,579.156 C 557.227,579.156 578.149,558.84 578.149,516.927 L 578.149,66.804 C 578.149,24.203 557.227,1.768 514.627,1.768 C 514.624,1.768 66.133,1.625 66.275,1.768 z"
       style="fill:#111111;stroke:#eeeeee;stroke-width:3.40799999"
       id="path1329" />
  </g>
  <path
     inkscape:connector-curvature="0"
     style="color:#000000;clip-rule:nonzero;display:inline;overflow:visible;visibility:visible;opacity:1;isolation:auto;mix-blend-mode:normal;color-interpolation:sRGB;color-interpolation-filters:linearRGB;solid-color:#000000;solid-opacity:1;fill:#ffffff;fill-opacity:1;fill-rule:nonzero;stroke:none;stroke-width:25;stroke-linecap:round;stroke-linejoin:round;stroke-miterlimit:4;stroke-dasharray:none;stroke-dashoffset:0;stroke-opacity:1;marker:none;color-rendering:auto;image-rendering:auto;shape-rendering:auto;text-rendering:auto;enable-background:accumulate"
     d="m 143.29087,308.48637 c -15.16319,0 -28.17493,9.21233 -33.74414,22.34765 l -2.89258,35.31446 0,38.75586 c 0,4.71422 0.89771,9.21518 2.51954,13.35546 l -79.132816,0 0,26.78907 0,10.71679 0,92.875 24.779038,0 0,-92.875 254.074738,0 0,92.875 24.77513,0 0,-92.875 0.002,0 0,-37.50586 -79.13281,0 c 1.62182,-4.14028 2.51953,-8.64126 2.51953,-13.35546 l 0,-38.75391 -2.89258,-35.31836 c -5.5692,-13.13175 -18.58094,-22.3457 -33.74414,-22.3457 l -77.13086,0 z m -7.71289,49.17382 8.67774,0 0,60.59961 -8.67774,0 z m 83.87891,0 8.67773,0 0,60.59961 -8.67773,0 z"
     id="path4178"
     sodipodi:nodetypes="sccsccccccccccccccsccscscccccccccc" />
  <path
     inkscape:connector-curvature="0"
     style="color:#000000;clip-rule:nonzero;display:inline;overflow:visible;visibility:visible;opacity:1;isolation:auto;mix-blend-mode:normal;color-interpolation:sRGB;color-interpolation-filters:linearRGB;solid-color:#000000;solid-opacity:1;fill:#ffffff;fill-opacity:1;fill-rule:nonzero;stroke:none;stroke-width:25;stroke-linecap:round;stroke-linejoin:round;stroke-miterlimit:4;stroke-dasharray:none;stroke-dashoffset:0;stroke-opacity:1;marker:none;color-rendering:auto;image-rendering:auto;shape-rendering:auto;text-rendering:auto;enable-background:accumulate"
     d="m 181.85728,203.24223 c -24.76076,0 -44.83397,20.07127 -44.83399,44.83203 0,24.76075 20.07323,44.83203 44.83399,44.83203 24.76076,0 44.83203,-20.07128 44.83203,-44.83203 0,-24.76076 -20.07127,-44.83203 -44.83203,-44.83203 z"
     id="path4176" />
  <path
     style="color:#000000;display:inline;overflow:visible;visibility:visible;fill:#ffffff;fill-opacity:1;fill-rule:nonzero;stroke:none;stroke-width:65.80000305;stroke-linecap:butt;stroke-linejoin:round;stroke-miterlimit:4;stroke-dasharray:none;stroke-opacity:0.68181817;marker:none;enable-background:accumulate"
     d="m 416.71935,167.49603 c 0,0 0,101.2243 47.9905,101.2243 15.99679,0 24.61048,-13.01455 24.61048,-13.01455 4.9221,11.56849 14.76631,18.7988 25.84098,18.7988 15.99684,0 28.30216,-14.46062 28.30216,-31.81336 0,-11.56849 -4.92217,-21.69091 -12.30532,-27.47517 4.92209,0 24.61055,-10.12242 24.61055,-34.70547 l 0,0 0,0 c 0,-15.90667 -11.07475,-33.2594 -25.84103,-34.70548 -2.46105,-15.90666 -13.5358,-27.47516 -28.30208,-27.47516 l -1.23056,0 c 3.6916,-5.78424 7.38323,-13.01455 7.38323,-20.244841 0,-17.352759 -12.30531,-31.813368 -28.30217,-31.813368 -7.38308,0 -14.76625,2.892129 -19.68836,8.676369 -3.69157,-14.460608 -14.76632,-24.583046 -27.07156,-24.583046 l -3.69157,0 C 425.33301,34.458383 411.79725,22.88988 397.03094,22.88988 c -11.07471,0 -20.91892,5.78426 -27.07154,15.906684 -2.46105,-1.44607 -6.1526,-1.44607 -8.61368,-1.44607 -15.99681,0 -29.53259,14.460626 -29.53259,31.813366 l 0,2.89211 c -4.9221,-4.338183 -11.07473,-8.676358 -18.45788,-8.676358 -14.76629,0 -28.30207,14.460618 -28.30207,33.259408 0,2.89213 0,5.78424 1.23053,8.67637 -14.7663,1.44605 -25.84102,14.46062 -25.84102,31.81334 0,17.35274 12.30526,31.81337 28.30207,31.81337 2.46106,0 4.92211,0 6.15262,-1.44607 -6.15262,7.23031 -9.8442,17.35273 -9.8442,28.92123 l 0,1.44606 c -13.53577,2.89212 -24.61049,15.90667 -24.61049,31.81335 0,17.35274 12.30526,31.81334 28.30207,31.81334 2.46106,0 4.92211,0 7.38316,-1.44605 1.23052,15.90667 13.53577,27.47515 28.30207,27.47515 9.84418,0 19.6884,-5.78423 24.61048,-15.90668 31.46718,2.5954 57.55529,-35.67701 64.94093,-42.09296 -1.42721,-17.73997 -0.014,-33.56459 2.73794,-62.02344 z"
     id="path3770"
     inkscape:connector-curvature="0"
     sodipodi:nodetypes="cscsscccccscsscscscsscsscsscscsscsccc" />
  <path
     style="color:#000000;display:inline;overflow:visible;visibility:visible;fill:#ffffff;fill-opacity:1;fill-rule:nonzero;stroke:none;stroke-width:65.80000305;stroke-linecap:butt;stroke-linejoin:round;stroke-miterlimit:4;stroke-dasharray:none;stroke-opacity:0.68181817;marker:none;enable-background:accumulate"
     d="m 390.77379,262.84736 c -0.29726,11.10619 -1.12598,23.18628 -1.12598,36.24027 -2.46104,63.62668 -33.22416,36.15152 -43.06837,70.857 l 135.35773,0 c -6.15258,-15.90669 -30.76311,-5.78424 -36.91574,-41.93579 -2.46104,-15.90667 -4.92209,-40.48973 -4.92209,-46.27396 -12.24249,-12.78831 -19.97385,-26.90194 -23.40187,-47.71282"
     id="path3"
     inkscape:connector-curvature="0" />
</svg>

<svg width="580" height="580" viewBox="0 0 580 580" fill="none" xmlns="http://www.w3.org/2000/svg">
<g clip-path="url(#clip0)">
<path d="M66.275 1.7679C24.94 1.7679 1.70398 23.1389 1.70398 66.8039V516.927C1.70398 557.771 22.598 579.156 63.896 579.156H515.92C557.227 579.156 578.149 558.84 578.149 516.927V66.8039C578.149 24.2029 557.227 1.7679 514.627 1.7679C514.624 1.7679 66.133 1.6249 66.275 1.7679Z" fill="#111111" stroke="#EEEEEE" stroke-width="3.408"/>
<path d="M143.291 308.486C128.128 308.486 115.116 317.699 109.547 330.834L106.654 366.148V404.904C106.654 409.619 107.552 414.119 109.174 418.26H30.0409V445.049V455.766V548.641H54.8199V455.766H308.895V548.641H333.67V455.766H333.672V418.26H254.539C256.161 414.119 257.059 409.618 257.059 404.904V366.15L254.166 330.832C248.597 317.7 235.585 308.486 220.422 308.486H143.291H143.291ZM135.578 357.66H144.256V418.26H135.578V357.66ZM219.457 357.66H228.135V418.26H219.457V357.66Z" fill="white"/>
<path d="M181.857 203.242C157.097 203.242 137.023 223.313 137.023 248.074C137.023 272.835 157.097 292.906 181.857 292.906C206.618 292.906 226.689 272.835 226.689 248.074C226.689 223.313 206.618 203.242 181.857 203.242Z" fill="white"/>
<path d="M416.719 167.496C416.719 167.496 416.719 268.72 464.71 268.72C480.707 268.72 489.32 255.706 489.32 255.706C494.242 267.274 504.087 274.505 515.161 274.505C531.158 274.505 543.463 260.044 543.463 242.691C543.463 231.123 538.541 221 531.158 215.216C536.08 215.216 555.769 205.094 555.769 180.511C555.769 164.604 544.694 147.251 529.928 145.805C527.467 129.898 516.392 118.33 501.626 118.33H500.395C504.087 112.546 507.778 105.315 507.778 98.0851C507.778 80.7324 495.473 66.2717 479.476 66.2717C472.093 66.2717 464.71 69.1639 459.788 74.9481C456.096 60.4875 445.021 50.3651 432.716 50.3651H429.025C425.333 34.4584 411.797 22.8899 397.031 22.8899C385.956 22.8899 376.112 28.6742 369.959 38.7966C367.498 37.3505 363.807 37.3505 361.346 37.3505C345.349 37.3505 331.813 51.8111 331.813 69.1639V72.056C326.891 67.7178 320.738 63.3796 313.355 63.3796C298.589 63.3796 285.053 77.8402 285.053 96.639C285.053 99.5312 285.053 102.423 286.284 105.315C271.517 106.761 260.443 119.776 260.443 137.129C260.443 154.481 272.748 168.942 288.745 168.942C291.206 168.942 293.667 168.942 294.897 167.496C288.745 174.726 285.053 184.849 285.053 196.417V197.863C271.517 200.755 260.443 213.77 260.443 229.677C260.443 247.029 272.748 261.49 288.745 261.49C291.206 261.49 293.667 261.49 296.128 260.044C297.358 275.951 309.664 287.519 324.43 287.519C334.274 287.519 344.118 281.735 349.04 271.612C380.508 274.208 406.596 235.935 413.981 229.519C412.554 211.78 413.967 195.955 416.719 167.496H416.719Z" fill="white"/>
<path d="M390.774 262.847C390.476 273.953 389.648 286.034 389.648 299.088C387.187 362.714 356.424 335.239 346.579 369.945H481.937C475.784 354.038 451.174 364.16 445.021 328.009C442.56 312.102 440.099 287.519 440.099 281.735C427.857 268.946 420.125 254.833 416.697 234.022" fill="white"/>
</g>
<defs>
<clipPath id="clip0">
<path d="M0 0H580V580H0V0Z" fill="white"/>
</clipPath>
</defs>
</svg>
